X:1
T:F# minor James P. Carrell, 1821
T:John Gambold, 1742                55. 11.
T:Hanover
T:Transcribed from Songs of Zion, 1821
%%score [ 1 2 3 4 ]
L:1/8
Q:1/4=85
M:2/4
K:A
V:1 treble nm="Tr." snm="Tr."
V:2 treble nm="C." snm="C."
V:3 treble-8 nm="T." snm="T."
V:4 bass nm="B." snm="B."
V:1
"^O tell  me  no more  Of this world's vain store;  The  time  for  such  trifles  with  me  now  is o'er.\nA country I've found  Where true joys abound;  To  dwell  I'm determined on that happy ground.""^1. {" c2 | %1
 c2 ed | c2 A2 | B2 AB | c2 e2 | c2 ef | e2 ce | f2 ff |"^}" c4 :| %9
 z2"^The souls that believe,  In" c2 | F2 AF | E2 c2 | %12
"^pa – ra – dise  live:   And    me   in   that   num–ber  will   Je–sus  re–ceive.               My soul, don't  de–lay,   He   calls  thee  a–way!  Rise," e>f cB | %13
 c2 f2 | e2 cB | A>B cd | e2 ee | c4 | z2 BA | c2 cd | e2 A2 | F2 BA | B2 c2 | %23
"^fol – low thy  Savior,  and   bless     the   glad   day." f2 fd | e2 ef | c2 cc | c4 |] %27
V:2
"^No mortal doth know  What He can bestow,  What light, strength, and comfort: go after Him, go!\nLo! onward I move,   And but Christ above  None guesses, how wondrous my journey will prove.""^2. {" F>G | %1
 A2 GF | C2 F2 | E2 E/F/G | F2 G2 | A2 BA | G2 cB | A2 FF |"^}" F4 :| %9
 z2"^Great spoils I shall win From death, hell, and sin;  Midst outward afflictions shall feel Christ within.  . Perhaps for his name,  Poor dust as I am,  Some works I shall finish with glad loving aim.""^Great spoils I shall win From death, hell, and sin;  Midst outward afflictions shall feel Christ within.  . Perhaps for his name,  Poor dust as I am,  Some works I shall finish with glad loving aim.""^Great spoils I shall win  From" F2 | %10
 F2 EC | E2 FG | %12
"^death, hell,  and sin;   Midst  outward  af–flic–tions  shall  feel  Christ within.          Per –haps for his name,  Poor  dust  as   I    am,   Some" A2 FF | %13
 F2 cB | A2 EF | C2 FF | E2 EE | F4 | z2 EF | A2 AF | E2 EA | F2 EF | B2 A2 | %23
"^works  I  shall   finish   with   glad    loving      aim." F2 FB | A2 BA | F2 FF | F4 |] %27
V:3
"^And  when  I'm  to  die,  \"Receive  me,\" I'll  cry,  For  Je – sus  hath  loved  me,  I  cannot say why.\nBut    this     I    do  find,  We  two  are  so joined,  He'll  not  live  in  glo – ry  and  leave me behind.""^3. {" F>G | %1
 A2 BA | F2 cd | e2 ed | c2 Bc | e2 B/c/d | cB AB | c2 FF |"^}" F4 :| %9
 z2"^Lo, this is the race     I'm" c2 | f2 ed | e2 fe | %12
"^running, through grace, Henceforth,  till  admitted  to  see  my  Lord's  face.            And now I'm  in care  My neighbors may share These" c>F AB | %13
 c2 cd | e2 ce | f2 cA | B2 AB | c4 | z2 BA | F2 AB | c2 ed | c2 BA | B2 f2 | %23
"^blessings:  To  seek  them  will  none  of  you   dare?" c2 dB | c2 BA | B>c AG | F4 |] %27
V:4
 F,2 | F,2 E,F, | A,2 A,F, | E,2 A,G, | F,2 E,2 | A,2 G,F, | E,2 F,E, | C,2 C,C, | F,4 :| z2 A,2 | %10
 F,2 E,F, | A,2 B,2 | C2 A,B, | A,2 F,2 | C,2 E,F, | A,2 A,F, | E,2 E,E, | C,4 | z2 E,2 | %19
 F,2 F,D, | E,2 E,F, | A,2 G,F, | E,2 C,2 | F,2 F,G, | A,2 B,A, | F,>E, C,C, | F,4 |] %27

